symbols/web/insert_chart/materialsymbolssharp/insert_chart_wght700gradN25fill1_48px.svg

<svg xmlns="http://www.w3.org/2000/svg" height="48" width="48"><path d="M14.6 34h2.9V20.45h-2.9Zm8 0h2.85V13.95H22.6Zm8 0h2.85v-7.25H30.6ZM5 43V4.9h38.1V43Z"/></svg>

<svg xmlns="http://www.w3.org/2000/svg" height="48" width="48"><path d="M14.6 34H17.5V20.45H14.6ZM22.6 34H25.45V13.95H22.6ZM30.6 34H33.45V26.75H30.6ZM5 43V4.9H43.1V43Z"/></svg>
